X:1
T:Title
%%score { ( 1 3 ) | ( 2 4 5 ) }
L:1/8
Q:1/4=100
M:4/4
K:Ab
V:1 treble nm="Grand Piano"
V:3 treble 
V:2 bass 
V:4 bass 
V:5 bass 
V:1
 c>_c =c>G B>A G>F | z4 [DE]4 | d>c d>E F>G A>B | c->[Ec-] [Fc-]>[Gc-] [Fc-]2 [Ec]2 | %4
w: Adam~Geibel * * * * * * *||||
 c>_c =c>G B>A [CE]>[CEF] | [EG]2 [EG]2 [EG]4 | [=DB]>[DA] [DG]>[DF] [_D=E]2 [=DF]2 | B8 | %8
w: ||||
 E>d [EGd]>[Gd] [EGd]2 [EGd]2 | d->[d-e] [Fd-f]>[d-g] [Fdf]2 [Ee]2 | E>c [EAc]>[Ac] [EAc]2 [EAc]2 | %11
w: |||
 [Ac]->[A-c-e] [FA-c-f]>[GA-c-g] [FAcf]2 [Ee]2 | [=Ec]>[Ec] [EG]>[EG] [FB]2 [FA]2 | z4 G4[K:bass] | %14
w: |||
 [EA]>[EA] B>B c2 [Ad]2 | e>e e>e e2 e2 | E>d [EGd]>[Gd] [EGd]2 [EGd]2 | %17
w: |||
 d->[d-e] [Fd-f]>[d-g] [Fdf]2 [Ee]2 | E>c [EAc]>[Ac] [EAc]2 [EAc]2 | %19
w: ||
 [Ac]->[A-c-e] [FA-c-f]>[GA-c-g] [FAcf]2 [Ee]2 | [=Ec]>[Ec] [EG]>[EG] [FB]2 [FA]2 | z4 G4[K:bass] | %22
w: |||
 [EA]>[EB] [Ec]>[FBd] [EAc]2 [DGB]2 | [CEA]6 z2 |] %24
w: ||
V:2
 [A,CE]>[A,CE] [A,CE]>[A,CE] [A,CE]>[A,CE] [A,C]>[A,C] | [A,,A,]2 [=A,,_G,]2 =G,4 | %2
 [E,G,E]>[E,G,E] [E,G,E]>[E,G,] [E,B,D]>[E,B,D] [E,A,D]>[E,G,D] | [A,,A,]8 | %4
 [A,CE]>[A,CE] [A,CE]>[A,CE] [A,CE]>[A,CE] A,,>A,, | [B,,B,]2 [B,,B,]2 [B,,B,]4 | %6
 [B,,F,]>[B,,F,] [B,,B,]>[B,,A,] [B,,G,]2 [B,,A,]2 | [E,G,D]8 | z z/ [EG]/ z z/ E/ E,,2 [E,G,D]2 | %9
 z z/ E/- E4 z2 | z z/ [EA]/ z z/ E/ A,,2 [E,A,C]2 | z z/ E/- E4 z2 | %12
 [C,G,]>[C,G,] [C,C]>[C,C] [F,C]2 [F,C]2 | [B,,B,]>[B,,B,] [B,,B,]>[B,,B,] [B,E]4 | %14
 [C,A,]>[C,A,] [E,G,E]>[E,G,E] [A,E]2 [F,B,]2 | z z/[K:treble] E/ E>E E2 E2 | %16
 z z/ [EG]/ z z/ E/ E,,2 [E,G,D]2 | z z/ E/- E4 z2 | z z/ [EA]/ z z/ E/ A,,2 [E,A,C]2 | %19
 z z/ E/- E4 z2 | [C,G,]>[C,G,] [C,C]>[C,C] [F,C]2 [F,C]2 | %21
 [B,,B,]>[B,,B,] [B,,B,]>[B,,B,] [B,E]4 | [C,A,]>[E,G,] A,>D, E,2 E,2 | A,,6 z2 |] %24
V:3
 x8 | [CE]2 [CE]2 z2 E,2 | x8 | C2 z2 z4 | x8 | x8 | x8 | x8 | x8 | [EG-]2 G>G- G2 z2 | x8 | %11
 E2 z2 z4 | x8 | [=DB]>[DB] [DF]>[DF] z2[K:bass] D,2 | x8 | G6 z2 | x8 | [EG-]2 G>G- G2 z2 | x8 | %19
 E2 z2 z4 | x8 | [=DB]>[DB] [DF]>[DF] z2[K:bass] D,2 | x8 | x8 |] %24
V:4
 x8 | z4 B,,2 z2 | x8 | x8 | x8 | x8 | x8 | x8 | E,,2 [E,G,D]2 z4 | z2 [E,G,D]2 [E,G,D]2 [E,G,D]2 | %10
 A,,2 [E,A,C]2 z4 | z2 [E,A,C]2 [E,A,C]2 [E,A,C]2 | x8 | z4 E,2 z2 | x8 | [E,B,]6[K:treble] z2 | %16
 E,,2 [E,G,D]2 z4 | z2 [E,G,D]2 [E,G,D]2 [E,G,D]2 | A,,2 [E,A,C]2 z4 | %19
 z2 [E,A,C]2 [E,A,C]2 [E,A,C]2 | x8 | z4 E,2 z2 | x8 | x8 |] %24
V:5
 x8 | x8 | x8 | x8 | x8 | x8 | x8 | x8 | x8 | E,,2 z2 z4 | x8 | A,,2 z2 z4 | x8 | x8 | x8 | %15
 x3/2[K:treble] x13/2 | x8 | E,,2 z2 z4 | x8 | A,,2 z2 z4 | x8 | x8 | x8 | x8 |] %24

